packages/icons/svgs/duotone/Source=shower.svg

<svg width="24" height="24" viewBox="0 0 24 24" fill="none" xmlns="http://www.w3.org/2000/svg">
<g opacity="0.5">
<path fill-rule="evenodd" clip-rule="evenodd" d="M12 21C12.5523 21 13 21.4477 13 22V23C13 23.5523 12.5523 24 12 24C11.4477 24 11 23.5523 11 23V22C11 21.4477 11.4477 21 12 21Z" fill="black" style="fill:black;fill-opacity:1;"/>
<path fill-rule="evenodd" clip-rule="evenodd" d="M7 18C7.55228 18 8 18.4477 8 19V20C8 20.5523 7.55228 21 7 21C6.44772 21 6 20.5523 6 20V19C6 18.4477 6.44772 18 7 18Z" fill="black" style="fill:black;fill-opacity:1;"/>
<path fill-rule="evenodd" clip-rule="evenodd" d="M17 18C17.5523 18 18 18.4477 18 19V20C18 20.5523 17.5523 21 17 21C16.4477 21 16 20.5523 16 20V19C16 18.4477 16.4477 18 17 18Z" fill="black" style="fill:black;fill-opacity:1;"/>
</g>
<path fill-rule="evenodd" clip-rule="evenodd" d="M12 0C12.5523 0 13 0.447715 13 1V4C13 4.55228 12.5523 5 12 5C11.4477 5 11 4.55228 11 4V1C11 0.447715 11.4477 0 12 0Z" fill="black" style="fill:black;fill-opacity:1;"/>
<path fill-rule="evenodd" clip-rule="evenodd" d="M2 15C2 14.4477 2.44772 14 3 14H21C21.5523 14 22 14.4477 22 15C22 15.5523 21.5523 16 21 16H3C2.44772 16 2 15.5523 2 15Z" fill="black" style="fill:black;fill-opacity:1;"/>
<path fill-rule="evenodd" clip-rule="evenodd" d="M5.63604 5.63604C7.32387 3.94821 9.61305 3 12 3C14.3869 3 16.6761 3.94821 18.364 5.63604C20.0518 7.32387 21 9.61305 21 12V15C21 15.5523 20.5523 16 20 16C19.4477 16 19 15.5523 19 15V12C19 10.1435 18.2625 8.36301 16.9497 7.05025C15.637 5.7375 13.8565 5 12 5C10.1435 5 8.36301 5.7375 7.05025 7.05025C5.7375 8.36301 5 10.1435 5 12V15C5 15.5523 4.55228 16 4 16C3.44772 16 3 15.5523 3 15V12C3 9.61305 3.94821 7.32387 5.63604 5.63604Z" fill="black" style="fill:black;fill-opacity:1;"/>
</svg>

<svg xmlns="http://www.w3.org/2000/svg" width="24" height="24" viewBox="0 0 24 24"><path fill-rule="evenodd" d="M12 21a1 1 0 0 1 1 1v1a1 1 0 1 1-2 0v-1a1 1 0 0 1 1-1m-5-3a1 1 0 0 1 1 1v1a1 1 0 1 1-2 0v-1a1 1 0 0 1 1-1m10 0a1 1 0 0 1 1 1v1a1 1 0 1 1-2 0v-1a1 1 0 0 1 1-1" clip-rule="evenodd" opacity=".55"/><path fill-rule="evenodd" d="M12 0a1 1 0 0 1 1 1v3a1 1 0 1 1-2 0V1a1 1 0 0 1 1-1M2 15a1 1 0 0 1 1-1h18a1 1 0 1 1 0 2H3a1 1 0 0 1-1-1" clip-rule="evenodd"/><path fill-rule="evenodd" d="M5.636 5.636A9 9 0 0 1 21 12v3a1 1 0 1 1-2 0v-3a7 7 0 0 0-14 0v3a1 1 0 1 1-2 0v-3a9 9 0 0 1 2.636-6.364" clip-rule="evenodd"/></svg>
